packages/core/src/svgs/tokens/mono/ACRIA.svg

<svg width="24" height="24" viewBox="0 0 24 24" fill="none" xmlns="http://www.w3.org/2000/svg">
<path d="M10.125 11.0625H7.31247L11.9999 3.5625L17.9374 14.1874H8.56248L6.37499 17.9375H8.56248L10.4375 14.8125H13.5624L15.4375 17.9375H17.9374L16.0624 14.8125H18.5624L22 20.4375H13.8749L11.9999 16.6874L10.125 20.4375H2L6.99998 11.6875H13.8749L11.9999 7.93749L10.125 11.0625Z" fill="white"/>
</svg>

<svg xmlns="http://www.w3.org/2000/svg" width="24" height="24" fill="none" viewBox="0 0 24 24">
    <path fill="#fff" d="M10.125 11.063H7.312L12 3.563l5.937 10.624H8.562l-2.187 3.75h2.187l1.876-3.125h3.124l1.876 3.126h2.5l-1.876-3.125h2.5L22 20.437h-8.125L12 16.688l-1.875 3.75H2l5-8.75h6.875L12 7.938z"/>
</svg>
